X: 1
T: MacDonald's
M: 4/4
L: 1/8
R: reel
K: Amix
e>d |: c2 Bc A2A2 | cAce gaef | =g2fgB3B | =GABd fged |
c2 Bc A2A2 | cAce gaef| =g2fg Bcdf| e2 A2 A2 cB :|
A2aA gA a2 | ef=ge ^gaef | =g2fgB2B2 | =GABd fged |
c2 Bc A2A2 | cAce gaef| =g2fg Bcdf| e2 A2 A2 z2 :|
